src/svg/reply.svg

<svg xmlns="http://www.w3.org/2000/svg" width="1000" height="1000" viewBox="0 0 1000 1000"><path fill-rule="evenodd" clip-rule="evenodd" fill="#020202" d="M103.385 337.455l188.151 158.401h6.575c0 14.968 12.145 27.139 27.151 27.139 15.008 0 27.205-12.171 27.205-27.139v51.28l.212.212-.212-132.96s37.068-35.809 161.529 30.347c89.516 47.555 106.167 105.186 106.167 105.186s7.689-148.684-77.689-216.946c-135.756-108.607-190.855-86.785-190.855-86.785l.689-75.74.159-.424c0-14.968-12.197-27.125-27.205-27.125-15.007 0-27.151 12.157-27.151 27.125 0 .357.159.569.213.914l-194.939 166.515zm249.083-212.809v36.564l.265-36.843-.265.279zm434.37 153.999c15.008 0 27.204 12.171 27.204 27.125v352.969c0 15.034-12.196 27.205-27.204 27.205h-203.583l-67.932 81.401-67.932-81.401h-203.529c-15.061 0-27.205-12.171-27.205-27.205v-155.538l-81.454-80.566v263.309c0 44.97 36.484 81.401 81.454 81.401h208.196l90.47 108.605 90.522-108.605h208.196c44.97 0 81.401-36.432 81.401-81.401v-407.299c0-44.969-36.432-81.48-81.401-81.48h-385.581c18.454 9.718 52.182 32.03 114.015 81.48h244.363z"/></svg>

<?xml version="1.0" encoding="utf-8"?>
<!-- Generator: Adobe Illustrator 16.0.0, SVG Export Plug-In . SVG Version: 6.00 Build 0)  -->
<!DOCTYPE svg PUBLIC "-//W3C//DTD SVG 1.1//EN" "http://www.w3.org/Graphics/SVG/1.1/DTD/svg11.dtd">
<svg version="1.1" id="Layer_1" xmlns="http://www.w3.org/2000/svg" xmlns:xlink="http://www.w3.org/1999/xlink" x="0px" y="0px"
	 width="1000px" height="1000px" viewBox="0 0 1000 1000" enable-background="new 0 0 1000 1000" xml:space="preserve">
<path fill-rule="evenodd" clip-rule="evenodd" fill="#020202" d="M103.385,337.455l188.151,158.401h6.575
	c0,14.968,12.145,27.139,27.151,27.139c15.008,0,27.205-12.171,27.205-27.139v51.28l0.212,0.212l-0.212-132.96
	c0,0,37.068-35.809,161.529,30.347c89.516,47.555,106.167,105.186,106.167,105.186s7.689-148.684-77.689-216.946
	C406.718,224.368,351.619,246.19,351.619,246.19l0.689-75.74c0-0.146,0.159-0.278,0.159-0.424c0-14.968-12.197-27.125-27.205-27.125
	c-15.007,0-27.151,12.157-27.151,27.125c0,0.357,0.159,0.569,0.213,0.914L103.385,337.455L103.385,337.455z M352.468,124.646v36.564
	l0.265-36.843L352.468,124.646L352.468,124.646z M786.838,278.645c15.008,0,27.204,12.171,27.204,27.125v352.969
	c0,15.034-12.196,27.205-27.204,27.205H583.255l-67.932,81.401l-67.932-81.401H243.862c-15.061,0-27.205-12.171-27.205-27.205
	V503.201l-81.454-80.566v263.309c0,44.97,36.484,81.401,81.454,81.401h208.196l90.47,108.605l90.522-108.605h208.196
	c44.97,0,81.401-36.432,81.401-81.401V278.645c0-44.969-36.432-81.48-81.401-81.48H428.46c18.454,9.718,52.182,32.03,114.015,81.48
	H786.838L786.838,278.645z"/>
</svg>
